X:1
T:Gelobt Sei Gott, 888 with alleluias
T:Melchior Vulpius ( c. 1560 - 1615 )
T:Gelobt Sei Gott, 888 with alleluias
T:Courtesy of the Cyber Hymnal (http://www.cyberhymnal.org)
T:Courtesy of the Cyber Hymnal (http://www.cyberhymnal.org)
C:Melchior Vulpius
C:( c. 1560 - 1615 )
Z:Courtesy of the Cyber Hymnal (http://www.cyberhymnal.org)
%%score ( 1 2 ) ( 3 4 )
L:1/8
M:3/4
K:C
V:1 treble nm="P1"
V:2 treble 
V:3 bass nm="P2"
V:4 bass 
V:1
"^Editor:  John Henry Fowler" c2 B2 A2 | G4 G2 | A4 B2 | [Gc]6 | [Ac]2 [Ac]2 [Ad]2 | G4 c2 | %6
 B2 A4 | [DG]6 | G2 E2 A2 | G4 c2 | E2 D4 | C6 | [Gc]2 [Gc]2 [GB]2 | c3 B A2 | [DG]2 [DG]2 [D^F]2 | %15
 G3 F E2 | [A,D]2 [G,C]2 [G,B,]2 | [G,C]6 |] %18
V:2
 G4 F2 | D4 G2 | F6 | x6 | x6 | D2 C2 A2 | G4 ^F2 | x6 | C6 | B,2 C2 z B, | C4 B,2 | .C6 | x6 | %13
 E4 F2 | x6 | D2 B,2 C2 | x6 | x6 |] %18
V:3
 E2 E2 C2 | B,4 C2 | C4 D2 | E6 | E2 E2 D2 | B,2 C2 E2 | D2 E2 D2 | B,6 | C2 G,2 F,2 | %9
 D,2 E,2 F,2 | G,2 A,2 G,2 | E,2 E,2 G,2 | E4 D2 | [A,C]3 G, F,2 | [G,B,]2 [G,B,]2 [D,A,]2 | %15
 G,4 C,2 | [F,,F,]2 [G,,E,]2 [G,,D,]2 | [C,E,]6 |] %18
V:4
 C,2 E,2 F,2 | G,2 F,2 E,2 | F,2 E,2 D,2 | A,,2 C2 B,2 | A,2 z G, F,2 | F,2 E,2 A,,2 | %6
 B,,2 C,2 E,2 | G,,2 G,2 F,2 | E,2 E,,2 F,,2 | F,,2 E,,2 D,,2 | E,,2 F,,2 G,,2 | C,6 | C2 C2 G,2 | %13
 x6 | x6 | B,,2 G,,2 A,,2 | x6 | x6 |] %18

